X:15867
T:Springdans
S:Alistair Cochrane
R:Polska
O:Denmark
M:3/4
K:D
ed ea gf | ed ef ge | f2 e4 | \
fe f2 d2 | ef ga gf | e2 d4 :|*
|: \
fe d2 [c2e2] | [F2d2] [A4e4] |\
fe d2 [c2e2] | [F2d2] [A4e4] |\
fe [A2f2] [F2d2] | [E2e2] f4 |\
ef ga gf | [A2e2] [F4d4] :|**
